X:1
T:Largo (Ombra mai fu)
C:George Frideric Handel
M:3/4
L:1/4
Q:1/4=46
K:F
C | F2 G | A2 B | A2 G | F3 | C2 D | E2 F | G3 | c2 B | A2 G | F2 G | A2 =B | c3 | c2 d | c2 B | A2 G | F3 |]
